img/skills-icon/git.svg

<svg viewBox="0 0 220 92" xmlns="http://www.w3.org/2000/svg"><path d="M166.51 0H175c4.13 2.22 4.71 7.43 3.28 11.47-2.19 4.53-8.59 4.93-12.57 2.75-4.7-3.28-4.14-11.38.8-14.22zm29.07 8.74l8.35.03c.08 4.54.06 9.08.06 13.62 4.48.22 8.98.3 13.47.2-.01 3.01-.01 6.02 0 9.02h-13.45c.03 7.15-.13 14.31.01 21.46.17 2.23.11 5.11 2.34 6.39 3.44 1.59 7.29.14 10.8-.48.85 2.17 1.79 4.29 2.84 6.38v1.4c-7.12 3.01-15.35 5-22.89 2.35-4.25-1.44-6.54-5.94-6.67-10.21-.25-9.06.08-18.12-.13-27.18a526.8 526.8 0 0 0-6.86-.14c0-2.57-.01-5.15-.02-7.73 2.93-.98 6.24-1.66 8.3-4.17 2.65-3.02 2.99-7.2 3.85-10.94zm-78.44 16.25c5.58-3.5 12.5-3.73 18.86-2.98 6.83 1.07 13.76.46 20.64.56.05 2.58.04 5.16.14 7.74-2.63.13-5.25.25-7.88.36 2.74 4.46 3.67 10.03 1.86 15.01-1.66 4.4-5.71 7.5-10.11 8.87-4.98 1.71-10.33 1.21-15.45.61-.85 1.42-1.69 2.84-2.52 4.26 7.09.47 14.21.72 21.26 1.67 3.93.62 8.38 1.77 10.54 5.47 3.4 6.08 1.5 14.65-4.42 18.47-7.59 5.21-17.28 4.64-26.04 4.27-5.42-.56-12.3-1.77-14.79-7.32-1.97-4.63.51-9.35 3.78-12.6-2.73-2.1-4.54-5.82-2.64-9.09 1.87-2.91 4.56-5.22 6.97-7.69-9.72-5.66-9.59-21.74-.2-27.61m10.15 6.32c-5.86 2.35-5.83 13.08.74 14.46 5.2 2.05 12.38-1.71 11.63-7.79.33-6.26-7.37-9.24-12.37-6.67m-7.93 45.7c1.37 3.32 5.48 3.62 8.58 3.84 4.14.07 8.58.31 12.39-1.58 2.27-.99 3.16-5 .28-5.78-6.18-1.6-12.7-.77-18.98-1.82-.92 1.69-2.46 3.28-2.27 5.34zm40.67-54.38c6.21-.05 12.42.01 18.63-.06.13 12.18-.07 24.37.07 36.54-.31 3.42 3.88 2.24 5.91 2.76.07 2.44.15 4.87.29 7.31-8.66.02-17.31.01-25.96 0 .04-2.43.07-4.86.14-7.3 1.9-.15 3.8-.32 5.7-.48.78-9.12.3-18.31.33-27.45.22-3.14-3.95-2.93-5.97-4 .29-2.44.59-4.88.86-7.32z" fill="#413932"/><path fill="#f74e28" d="M41.95 1.86c2.69-2.31 6.93-1.68 9.28.8C63.5 14.75 75.59 27.01 87.85 39.1c1.85 1.88 4.06 4.01 3.78 6.9.19 2.33-1.47 4.09-2.97 5.62-12.22 12.13-24.41 24.31-36.6 36.48-1.63 1.62-3.64 3.24-6.08 3.16-2.7.05-4.72-2.02-6.51-3.76C27.2 75.15 14.79 62.94 2.55 50.57c-2.83-2.61-2.6-7.29.23-9.79 8.74-8.91 17.74-17.56 26.44-26.51 3.54 3.11 6.85 6.45 10.17 9.79-.73 3.61.7 6.99 3.72 9.04.04 8.57.07 17.14-.01 25.7-3.2 2.12-5.2 6.43-2.89 9.94 2.64 5.03 11.35 3.87 12.39-1.8 1.04-3.35-1.08-6.16-3.54-8.12-.02-8.34-.03-16.68.01-25.03 3.23 3.1 6.38 6.27 9.55 9.43-.2 2.77-.1 5.98 2.31 7.84 3.74 3.41 10.63 1.05 11.19-4.1.94-5.04-4.31-8.87-9.01-7.63-3.48-3.42-6.91-6.89-10.38-10.31-.06-2.43.3-5.27-1.73-7.07-1.82-2.26-4.94-1.75-7.47-2.35-3.43-2.94-6.64-6.2-9.56-9.66 2.35-2.96 5.15-5.57 7.98-8.08z"/></svg>

<?xml version="1.0" encoding="UTF-8" ?>
<!DOCTYPE svg PUBLIC "-//W3C//DTD SVG 1.1//EN" "http://www.w3.org/Graphics/SVG/1.1/DTD/svg11.dtd">
<svg viewBox="0 0 220 92" version="1.1" xmlns="http://www.w3.org/2000/svg">
<g id="#413932ff">
<path fill="#413932" opacity="1.00" d=" M 166.51 0.00 L 175.00 0.00 C 179.13 2.22 179.71 7.43 178.28 11.47 C 176.09 16.00 169.69 16.40 165.71 14.22 C 161.01 10.94 161.57 2.84 166.51 0.00 Z" />
<path fill="#413932" opacity="1.00" d=" M 195.58 8.74 C 198.36 8.75 201.14 8.76 203.93 8.77 C 204.01 13.31 203.99 17.85 203.99 22.39 C 208.47 22.61 212.97 22.69 217.46 22.59 C 217.45 25.60 217.45 28.61 217.46 31.61 C 212.98 31.61 208.49 31.61 204.01 31.61 C 204.04 38.76 203.88 45.92 204.02 53.07 C 204.19 55.30 204.13 58.18 206.36 59.46 C 209.80 61.05 213.65 59.60 217.16 58.98 C 218.01 61.15 218.95 63.27 220.00 65.36 L 220.00 66.76 C 212.88 69.77 204.65 71.76 197.11 69.11 C 192.86 67.67 190.57 63.17 190.44 58.90 C 190.19 49.84 190.52 40.78 190.31 31.72 C 188.02 31.66 185.73 31.61 183.45 31.58 C 183.45 29.01 183.44 26.43 183.43 23.85 C 186.36 22.87 189.67 22.19 191.73 19.68 C 194.38 16.66 194.72 12.48 195.58 8.74 Z" />
<path fill="#413932" opacity="1.00" d=" M 117.14 24.99 C 122.72 21.49 129.64 21.26 136.00 22.01 C 142.83 23.08 149.76 22.47 156.64 22.57 C 156.69 25.15 156.68 27.73 156.78 30.31 C 154.15 30.44 151.53 30.56 148.90 30.67 C 151.64 35.13 152.57 40.70 150.76 45.68 C 149.10 50.08 145.05 53.18 140.65 54.55 C 135.67 56.26 130.32 55.76 125.20 55.16 C 124.35 56.58 123.51 58.00 122.68 59.42 C 129.77 59.89 136.89 60.14 143.94 61.09 C 147.87 61.71 152.32 62.86 154.48 66.56 C 157.88 72.64 155.98 81.21 150.06 85.03 C 142.47 90.24 132.78 89.67 124.02 89.30 C 118.60 88.74 111.72 87.53 109.23 81.98 C 107.26 77.35 109.74 72.63 113.01 69.38 C 110.28 67.28 108.47 63.56 110.37 60.29 C 112.24 57.38 114.93 55.07 117.34 52.60 C 107.62 46.94 107.75 30.86 117.14 24.99 M 127.29 31.31 C 121.43 33.66 121.46 44.39 128.03 45.77 C 133.23 47.82 140.41 44.06 139.66 37.98 C 139.99 31.72 132.29 28.74 127.29 31.31 M 119.36 77.01 C 120.73 80.33 124.84 80.63 127.94 80.85 C 132.08 80.92 136.52 81.16 140.33 79.27 C 142.60 78.28 143.49 74.27 140.61 73.49 C 134.43 71.89 127.91 72.72 121.63 71.67 C 120.71 73.36 119.17 74.95 119.36 77.01 Z" />
<path fill="#413932" opacity="1.00" d=" M 160.03 22.63 C 166.24 22.58 172.45 22.64 178.66 22.57 C 178.79 34.75 178.59 46.94 178.73 59.11 C 178.42 62.53 182.61 61.35 184.64 61.87 C 184.71 64.31 184.79 66.74 184.93 69.18 C 176.27 69.20 167.62 69.19 158.97 69.18 C 159.01 66.75 159.04 64.32 159.11 61.88 C 161.01 61.73 162.91 61.56 164.81 61.40 C 165.59 52.28 165.11 43.09 165.14 33.95 C 165.36 30.81 161.19 31.02 159.17 29.95 C 159.46 27.51 159.76 25.07 160.03 22.63 Z" />
</g>
<g id="#f74e28ff">
<path fill="#f74e28" opacity="1.00" d=" M 41.95 1.86 C 44.64 -0.45 48.88 0.18 51.23 2.66 C 63.50 14.75 75.59 27.01 87.85 39.10 C 89.70 40.98 91.91 43.11 91.63 46.00 C 91.82 48.33 90.16 50.09 88.66 51.62 C 76.44 63.75 64.25 75.93 52.06 88.10 C 50.43 89.72 48.42 91.34 45.98 91.26 C 43.28 91.31 41.26 89.24 39.47 87.50 C 27.20 75.15 14.79 62.94 2.55 50.57 C -0.28 47.96 -0.05 43.28 2.78 40.78 C 11.52 31.87 20.52 23.22 29.22 14.27 C 32.76 17.38 36.07 20.72 39.39 24.06 C 38.66 27.67 40.09 31.05 43.11 33.10 C 43.15 41.67 43.18 50.24 43.10 58.80 C 39.90 60.92 37.90 65.23 40.21 68.74 C 42.85 73.77 51.56 72.61 52.60 66.94 C 53.64 63.59 51.52 60.78 49.06 58.82 C 49.04 50.48 49.03 42.14 49.07 33.79 C 52.30 36.89 55.45 40.06 58.62 43.22 C 58.42 45.99 58.52 49.20 60.93 51.06 C 64.67 54.47 71.56 52.11 72.12 46.96 C 73.06 41.92 67.81 38.09 63.11 39.33 C 59.63 35.91 56.20 32.44 52.73 29.02 C 52.67 26.59 53.03 23.75 51.00 21.95 C 49.18 19.69 46.06 20.20 43.53 19.60 C 40.10 16.66 36.89 13.40 33.97 9.94 C 36.32 6.98 39.12 4.37 41.95 1.86 Z" />
</g>
</svg>
